X:3071
L:1/4
M:4/4
K:G
 G/A/ | B G B/c/ d | e2 d2 | d G E/F/ G |: z3 d | g e f g/f/ | e3 d | B/A/ G B/c/ d :| z3 g | 
 d3/2 d/ e/d/c/B/ |[M:5/4] A c e d G | F G z2 |]

